static/assets/img/icons/theme/devices/battery-half.svg

<svg height="24" viewBox="0 0 24 24" width="24" xmlns="http://www.w3.org/2000/svg"><g fill="none" fill-rule="evenodd"><path d="m0 0h24v24h-24z" opacity="0"/><g fill="#000"><path d="m11 9v6h6v-6zm-7-2h13c1.1045695 0 2 .8954305 2 2v6c0 1.1045695-.8954305 2-2 2h-13c-1.1045695 0-2-.8954305-2-2v-6c0-1.1045695.8954305-2 2-2z" fill-rule="nonzero"/><path d="m20 10h1c.5522847 0 1 .4477153 1 1v2c0 .5522847-.4477153 1-1 1h-1z" opacity=".3"/></g></g></svg>

<svg width="24px" height="24px" viewBox="0 0 24 24" version="1.1" xmlns="http://www.w3.org/2000/svg" xmlns:xlink="http://www.w3.org/1999/xlink">
    <title>Icon For Battery-half</title>
    <g stroke="none" stroke-width="1" fill="none" fill-rule="evenodd">
        <rect opacity="0" x="0" y="0" width="24" height="24"></rect>
        <path d="M11,9 L11,15 L17,15 L17,9 L11,9 Z M4,7 L17,7 C18.1045695,7 19,7.8954305 19,9 L19,15 C19,16.1045695 18.1045695,17 17,17 L4,17 C2.8954305,17 2,16.1045695 2,15 L2,9 C2,7.8954305 2.8954305,7 4,7 Z" fill="#000000" fill-rule="nonzero"></path>
        <path d="M20,10 L21,10 C21.5522847,10 22,10.4477153 22,11 L22,13 C22,13.5522847 21.5522847,14 21,14 L20,14 L20,10 Z" fill="#000000" opacity="0.3"></path>
    </g>
</svg>
